X:215 
T:Another Round of Punch!*
F:file ID: cre.5/215another
B:CRE5.034 (gan ainm)
N:A "gan ainm" christened by me because of its similarity to "Jackson's Rum Punch" 
a/k/a/ "Piper's Punch" (in the webabc/misc folder)
M:6/8
Q:160
R:jig
K:G
A|BGE DEG|GBd e2d|gfg dBG|ABA AGA|
"5"BGE DEG|GBd e2d|gfg dBd|GAG G2:|
d|"9"gfg efg|dec BAG|gfg dBG|ABA A2d|
"13"gfg efg|dec BAG|cec BdB|GAG G2d||
"17"gfg efg|dec BAG|gfg dBG|ABA AGA|
"21"BGE DEG|GBd e2d|gfg dBG|GAG G3|]

%%%

